modules/hawcons-stroke/icons/icon-5-thumb-down.svg

<?xml version="1.0" encoding="UTF-8" standalone="no"?>
<svg width="32px" height="32px" viewBox="0 0 32 32" version="1.1" xmlns="http://www.w3.org/2000/svg" xmlns:xlink="http://www.w3.org/1999/xlink" xmlns:sketch="http://www.bohemiancoding.com/sketch/ns">
    <!-- Generator: Sketch 3.0.3 (7891) - http://www.bohemiancoding.com/sketch -->
    <title>icon 5 thumb down</title>
    <desc>Created with Sketch.</desc>
    <defs></defs>
    <g id="Page-1" stroke="none" stroke-width="1" fill="none" fill-rule="evenodd" sketch:type="MSPage">
        <g id="icon-5-thumb-down" sketch:type="MSArtboardGroup" fill="#929292">
            <path d="M10,19 L9.5,19 L3.99810135,19 C2.89458045,19 2,18.1099416 2,16.9998938 L2,4.00010618 C2,2.89547804 2.88670635,2 3.99810135,2 L9.5,2 L15.2542043,2 L23.4915915,2 C24.8769472,2 26,3.10966206 26,4.5 C26,5.06281021 25.8146659,5.58218312 25.5007444,6.00001615 C26.8818905,6.00489104 28,7.11272529 28,8.5 C28,9.13578601 27.763488,9.71613998 27.3722702,10.1573008 C28.3231922,10.5104957 29,11.4206732 29,12.5 C29,13.135786 28.763488,13.71614 28.3722702,14.1573008 C29.3231922,14.5104957 30,15.4206732 30,16.5 C30,17.8807119 28.8845825,19 27.4915915,19 L21.4997559,19 C22.5490723,24.0168457 22.0463867,30.0000007 18,30 C13.9536133,29.9999993 16.066359,25.2123529 14.5,22.2373047 C12.9336408,19.2622566 10,19 10,19 L10,19 L10,19 Z M3.99077797,18 C3.44358641,18 3,17.5510798 3,16.992516 L3,4.00748397 C3,3.45106594 3.45097518,3 3.99077797,3 L9,3 L9,18 L3.99077797,18 L3.99077797,18 Z M6,5 C6.55228478,5 7,5.44771522 7,6 C7,6.55228478 6.55228478,7 6,7 C5.44771522,7 5,6.55228478 5,6 C5,5.44771522 5.44771522,5 6,5 L6,5 L6,5 Z M20.3000031,18 L27.5069036,18 C28.3361142,18 29,17.3284271 29,16.5 C29,15.6657972 28.331518,15 27.5069036,15 L24,15 L24,14 L26.5069036,14 C27.3361142,14 28,13.3284271 28,12.5 C28,11.6657972 27.331518,11 26.5069036,11 L23,11 L23,10 L25.5069036,10 C26.3361142,10 27,9.32842712 27,8.5 C27,7.66579723 26.331518,7 25.5069036,7 L22,7 L22,6 L23.4983244,6 C24.3288106,6 25,5.32842712 25,4.5 C25,3.66579723 24.3276769,3 23.4983244,3 L19.7508378,3 L10,3 C10,3 10,16 10,18 C11.5,18 12.8059878,19 12.8059878,19 C13.7162069,19.5683021 14.7021702,20.4282175 15.3710938,21.6987305 C16.9374527,24.6737787 15.1291504,28.9999996 18,29 C20.9602549,29.0000004 21.4480296,24.1472353 20.501172,19.0000016 C20.5011721,19 20.3000031,18 20.3000031,18 L20.3000031,18 L20.3000031,18 Z" id="thumb-down" sketch:type="MSShapeGroup"></path>
        </g>
    </g>
</svg>

<svg width="32" height="32" viewBox="0 0 32 32" xmlns="http://www.w3.org/2000/svg"><path d="M10 19H3.998A1.996 1.996 0 0 1 2 17V4c0-1.105.887-2 1.998-2h19.494A2.498 2.498 0 0 1 25.5 6a2.498 2.498 0 0 1 1.871 4.157A2.493 2.493 0 0 1 29 12.5c0 .636-.237 1.216-.628 1.657a2.5 2.5 0 0 1-.88 4.843H21.5c1.05 5.017.546 11-3.5 11s-1.934-4.788-3.5-7.763C12.934 19.262 10 19 10 19zm-6.01-1A.998.998 0 0 1 3 16.993V4.007C3 3.451 3.451 3 3.99 3H9v15H3.99zM6 5a1 1 0 1 1 0 2 1 1 0 0 1 0-2zm14.3 13h7.207c.83 0 1.493-.672 1.493-1.5 0-.834-.668-1.5-1.493-1.5H24v-1h2.507c.83 0 1.493-.672 1.493-1.5 0-.834-.668-1.5-1.493-1.5H23v-1h2.507C26.337 10 27 9.328 27 8.5c0-.834-.668-1.5-1.493-1.5H22V6h1.498a1.5 1.5 0 1 0 0-3H10v15c1.5 0 2.806 1 2.806 1 .91.568 1.896 1.428 2.565 2.699C16.937 24.674 15.13 29 18 29c2.96 0 3.448-4.853 2.501-10l-.201-1z" fill="#929292" fill-rule="evenodd"/></svg>
